X: 20734
T: Johnny Doherty's
R: jig
M: 6/8
K: Dmajor
FAA ABc|ded cBA|FAA BAG|cBc A2G|
FAA ABc|ded cBA|gfg bag|1 edc d2A:|2 edc d2e||
|:fed efg|afd cBA|FAA BAG|cBc A2g|
fed efg|afd cBA|gfg bag|1 edc d2e:|2 edc d2A||

